X:1
T:Mille quater pavit
T:Daniel Friderici
T:Source : Bicinia sacra---Rostock---J.Richelius---1642. Editor : André Vierendeels (11/07/17).
T:Notes : Original clefs : C1, C1 Original note values have been halved in 3-beat measures Editorial accidentals above the staff
T:Mille quater pavit
T:©
T:©
C:Daniel Friderici
Z:©
%%score [ 1 2 ]
L:1/8
Q:1/4=120
M:6/4
K:F
V:1 treble nm="Soprano 1" snm="S 1"
V:2 treble nm="Soprano 2" snm="S 2"
V:1
 c2 c2 F2 AG AB c2 | c2 c2 F2 AG AB c2 | f4 e2 d3 d c2 | f4 e2 d3 d c2 | B4 A2 c2 c2 G2 | %5
w: Mil- le qua- ter, _ _ _ _|mil- le qua- ter, _ _ _ _|pa- vit Do- mi- nus,|pa- vit Do- mi- nus|su- a ver- ba se-|
 AB cd ec de fd e2 |[M:2/4] f4 :: z2 c2 |[M:2/2] d4 c2 F2 | B4 F2 c2 | d4 c2 c2 | d2 e2 f2 ed | %12
w: qu- * * * * * * * * * u-|tus:|Sis|pi- us, sis|pi- us, sis|pi- us et|vi- ctus co- * *|
 c3 d e2 f2 | e2 A2 =B2 c2 | =B2 c4 B2 | c8 | z2 C2 D2 E2 | F2 ED C2 D2 | E2 F2 E2 C2 | D6 D2 | %20
w: ||* * pi-|a,|et vi- ctus|co- * * * *||* pi-|
 C2 F4 G2 | A6 G2 | A4 =B4 | c4 C4 | F8- | F4 G4 | A6 G2 | A4 B4 | c4 C4 | F4 G4 | A6 G2 | %31
w: a sem- per|e- *||* rit,|sem-|* per|e- *||* rit,|sem- per|e- *|
 F2 G2 A2 F2 | G2 A2 B2 A2 | G2 F2 G4 | F8 |] %35
w: |||rit|
V:2
 z6 c2 c2 F2 | AG AB c2 c2 c2 F2 | AG AB c2 f4 e2 | d3 d c2 f4 e2 | d3 d c2 A4 B2 | %5
w: Mil- le qua-|ter, _ _ _ _ mil- le qua-|ter, _ _ _ _ pa- vit|Do- mi- nus, pa- vit|Do- mi- nus, su- a|
 c3 B A2 BA AG/F/ G2 |[M:2/4] F4 :: z2 F2 |[M:2/2] B4 F2 c2 | d4 c2 F2 | B4 F4 | z2 C2 D2 E2 | %12
w: ver- ba se- qu- * * * * u-|tus:|Sis|pi- us, sis|pi- us, sis|pi- us|et vi- ctus|
 F2 ED C3 D | E2 F2 E2 C2 | D6 D2 | C6 c2 | d2 e2 f2 ed | c3 d e2 f2 | e2 A2 =B2 c2 | =B2 c4 B2 | %20
w: co- * * * *||* pi-|a, et|vi- ctus co- * *|||* * pi-|
 c8 | F8- | F4 G4 | A6 G2 | A4 B4 | c4 C4 | F8- | F4 G4 | A6 G2 | A4 B4 | c6 C2 | D2 E2 F2 D2 | %32
w: a,|sem-|* per|e- *||* rit,|sem-|* per|e- *||||
 E2 F2 D2 CD | E2 F4 E2 | F8 |] %35
w: ||rit.|

